build/img/footer/twitter.svg

<svg  id="twitter" viewBox="0 0 44 45"  xmlns="http://www.w3.org/2000/svg">
<path d="M22 3.50293C11.3695 3.50293 2.75 12.1225 2.75 22.7529C2.75 33.3834 11.3695 42.0029 22 42.0029C32.6305 42.0029 41.25 33.3834 41.25 22.7529C41.25 12.1225 32.6305 3.50293 22 3.50293ZM31.2512 18.0135C31.2641 18.2154 31.2641 18.426 31.2641 18.6322C31.2641 24.94 26.4602 32.2061 17.6816 32.2061C14.9746 32.2061 12.4652 31.4197 10.3512 30.0662C10.7379 30.1092 11.1074 30.1264 11.5027 30.1264C13.7371 30.1264 15.791 29.3701 17.4281 28.0896C15.3313 28.0467 13.5695 26.6717 12.968 24.7811C13.7027 24.8885 14.3645 24.8885 15.1207 24.6951C14.041 24.4758 13.0706 23.8894 12.3742 23.0356C11.6779 22.1818 11.2986 21.1133 11.3008 20.0115V19.9514C11.9324 20.308 12.6758 20.5271 13.4535 20.5572C12.7997 20.1215 12.2635 19.5312 11.8925 18.8386C11.5215 18.146 11.3271 17.3726 11.3266 16.5869C11.3266 15.6975 11.5586 14.8854 11.9754 14.1807C13.1738 15.6559 14.6692 16.8625 16.3645 17.722C18.0598 18.5815 19.9169 19.0746 21.8152 19.1693C21.1406 15.9252 23.5641 13.2998 26.4773 13.2998C27.8523 13.2998 29.0898 13.8756 29.9621 14.8037C31.0406 14.6018 32.0719 14.1979 32.9914 13.6564C32.6348 14.7607 31.8871 15.6932 30.8945 16.2818C31.857 16.1787 32.7852 15.9123 33.6445 15.5385C32.9957 16.4924 32.1836 17.3389 31.2512 18.0135Z" />
</svg>

<svg id="twitter" viewBox="0 0 44 45" xmlns="http://www.w3.org/2000/svg"><path d="M22 3.503c-10.63 0-19.25 8.62-19.25 19.25s8.62 19.25 19.25 19.25 19.25-8.62 19.25-19.25S32.63 3.503 22 3.503zm9.251 14.51c.013.202.013.413.013.62 0 6.307-4.804 13.573-13.582 13.573-2.707 0-5.217-.786-7.33-2.14.386.043.755.06 1.15.06a9.574 9.574 0 005.926-2.036 4.773 4.773 0 01-4.46-3.309c.735.108 1.396.108 2.153-.086a4.77 4.77 0 01-3.82-4.683v-.06a4.776 4.776 0 002.152.605 4.774 4.774 0 01-2.126-3.97c0-.89.232-1.702.648-2.406a13.548 13.548 0 009.84 4.988c-.674-3.244 1.75-5.87 4.662-5.87 1.375 0 2.613.577 3.485 1.505a9.424 9.424 0 003.03-1.148 4.75 4.75 0 01-2.097 2.626 9.438 9.438 0 002.75-.743c-.65.953-1.461 1.8-2.394 2.475z"/></svg>20.308 12.6758 20.5271 13.4535 20.5572C12.7997 20.1215 12.2635 19.5312 11.8925 18.8386C11.5215 18.146 11.3271 17.3726 11.3266 16.5869C11.3266 15.6975 11.5586 14.8854 11.9754 14.1807C13.1738 15.6559 14.6692 16.8625 16.3645 17.722C18.0598 18.5815 19.9169 19.0746 21.8152 19.1693C21.1406 15.9252 23.5641 13.2998 26.4773 13.2998C27.8523 13.2998 29.0898 13.8756 29.9621 14.8037C31.0406 14.6018 32.0719 14.1979 32.9914 13.6564C32.6348 14.7607 31.8871 15.6932 30.8945 16.2818C31.857 16.1787 32.7852 15.9123 33.6445 15.5385C32.9957 16.4924 32.1836 17.3389 31.2512 18.0135Z" />
</svg>
